X:1
T:Dance of the Sugar-Plum Fairy
T:Pyotr Il’yich Tchaikovsky
T:Transcribed for piano by Stepán Esipoff
T:Dance of the Sugar-Plum Fairy
T:from THE NUTCRACKER Op. 71a
T:Public Domain
T:Public Domain
T:Public Domain
T:Public Domain
C:Pyotr Il’yich Tchaikovsky
C:
Z:Public Domain
%%score { 1 | ( 2 3 ) }
L:1/8
Q:1/4=70
M:2/4
K:G
V:1 treble nm="PIANO."
V:2 bass 
V:3 bass 
V:1
!pp!"^Andante ma non troppo." z [G,B,E] z [A,CF] | z [^A,^CG] z [=A,=C^D] | z [G,B,E] z [A,CF] | %3
 z [^A,^CG] z [=A,=C^D] | z .[bg']/.[ge']/ .[bg'].[af'] | %5
 .[f^d'].[ge']!<(! .[=f^g=d']/.[fgd']/.[fgd']!<)! | %6
 .[e=g^a^c']/.[egac']/.[egac']!>(! .[^df=a=c']/.[dfac']/.[dfac']!>)! | %7
 .[gb]/.e'/.[ac']/.e'/ .[gb] z | z .[cg]/.[Ge]/!<(! .[cg].[cf] | %9
 .[^dfc']!<)!!arpeggio!.[egb] .[^a^c'e'g']/.[ac'e'g']/.[ac'e'g'] | %10
 .[^gb=d'f']/.[gbd'f']/.[gbd'f']!>(! .[f^a^c'e']/.[fac'e']/.[fac'e']!>)! | %11
 .[b^d']/.f'/.[^ae']/.f'/ .[bd']!pp! z | z .[bg']/.[ge']/ .[bg'].[af'] | %13
 .[f^d'].[ge'] .[=f^g=d']/!<(!.[fgd']/.[fgd'] | %14
 .[e=g^a^c']/.[egac']/.[egac']!<)! .[^df=a=c']/.[dfac']/.[dfac'] | %15
 .[gb]/.e'/.[ac']/.e'/!>(! .[gb] z!>)! | z .[^Ae]/.[F^c]/ .[Ae].[=AB^d] | %17
 z .[^G=d]/.[EB]/ .[Gd].[=GA^c] | z .[F=c]/.[DA]/!<(! .[Fc].[GB] | %19
 z (B/4^d/4f/4b/4!<)! .e)!mf!!tenuto!.B, |!pp!!<(! x x x!<)! x | %21
!>(!!>(! x x!>)! x[K:bass]!p! (3B,/^C/B,/!>)! | (3(A,/G,/B,/ (3G,/B,/G,/ (3B,/G,/B,/) (3G,/B,/A,/ | %23
 (3(G,/F,/A,/ (3F,/A,/F,/ (3A,/F,/A,/)!sfz! .B, |[K:treble]!pp!!<(! x!<(! x x x!<)!!<)! | %25
!>(! x x!>)! x[K:bass]!p! (3B,/^C/B,/ | (3(A,/G,/B,/ (3G,/B,/G,/ (3B,/G,/B,/) (3G,/B,/A,/ | %27
 (3(G,/F,/A,/ (3F,/A,/F,/ (3A,/F,/A,/)!sfz! .B, |[K:treble]!p! x2 x!sfz! .B, |!p! x2 x!sfz! .B, | %30
!p! x2 x z/ [Beg]/"^cresc.  -        -       -        -" | %31
 [=cea]/[cea]/ z/ [cea]/ !arpeggio!!tenuto!.[B^dfb]!f![Q:1/4=60] x"^quasi arpa" | x4 | %33
 x x x!8va(! x | x4 | x2 x!p![Q:1/4=70] z | z!pp! .[b'g'']/.[g'e'']/ .[b'g''].[a'f''] | %37
 .[f'^d''].[g'e''] .[=f'^g'=d'']/.[f'g'd'']/.[f'g'd''] | %38
 .[e'=g'^a'^c'']/.[e'g'a'c'']/.[e'g'a'c''] .[^d'f'=a'=c'']/.[d'f'a'c'']/.[d'f'a'c''] | %39
 .!2!!3![g'b']/.[e'e'']/.!2!!3![a'c'']/.[e'e'']/ .[g'b'] z | z!<(! .[c'g']/.[ge']/ .[c'g'].[c'f'] | %41
 !arpeggio!.[^d'f'c'']!arpeggio!.[e'g'b'] .[^a'^c''e''g'']/!<)!.[a'c''e''g'']/.[a'c''e''g''] | %42
 .[^g'b'=d''f'']/.[g'b'd''f'']/.[g'b'd''f''] .[f'^a'^c''e'']/.[f'a'c''e'']/.[f'a'c''e''] | %43
!mp! .[b'^d'']/.f''/.[^a'e'']/.f''/!>(! .[b'd''] z!>)! | %44
!pp! z .[b'g'']/.[g'e'']/ .[b'g''].[a'f''] | .[f'^d''].[g'e''] .[=f'^g'=d'']/.[f'g'd'']/[f'g'd''] | %46
 .[e'=g'^a'^c'']/.[e'g'a'c'']/.[e'g'a'c'']!<(! .[^d'f'=a'=c'']/.[d'f'a'c'']/.[d'f'a'c'']!<)! | %47
!>(! .!2!!3![g'b']/.[e'e'']/.!2!!3![a'c'']/.[e'e'']/ .[g'b']!8va)!!>)! z | %48
!pp! z .[^ae']/.[f^c']/ .[ae'].[=ab^d'] | z .[^g=d']/.[eb]/ .[gd'].[=ga^c'] | %50
 z .[f=c']/.[da]/ .[fc'].[gb] | z!f! (b/4^d'/4f'/4b'/4 .[be']) !arpeggio!.[GBe] |] %52
V:2
 [E,,E,]"^leggiero" z [E,,E,] z | [E,,E,] z [E,,E,] z | [E,,E,] z [E,,E,] z | [E,,E,] z [E,,E,] z | %4
 .[E,,E,].[G,B,] .E,.[A,C] | .E,.[^A,^C] .E,.[B,D] | .E,.[^CE] .E,.[^DF] | %7
[K:treble] .[EG].[EFA] .[EG][K:bass] (!1!E,/4!2!D,/4!3!C,/4!4!B,,/4 | %8
 .!5!^A,,).[E,G,C] .=A,,.[^D,F,C] | .G,,.[E,G,B,] .F,,.[F,^A,] | .F,.[^G,B,] .F,.[^A,^C] | %11
 !arpeggio!.[B,,F,B,].[=C,F,^A,] .[B,,F,B,] (!1!B,,/4!2!=A,,/4!3!G,,/4!4!F,,/4 | %12
 .!5!E,,).[G,B,] .E,.[A,C] | .E,.[^A,^C] .E,.[B,D] | .E,.[^CE] .E,.[^DF] | %15
[K:treble] .[EG].[EFA] .[EG] (!1!G/4!2!F/4!3!E/4!4!D/4 | %16
 .!5!^C)[F,C]- [F,C](!1!F/4!2!E/4!3!^D/4!4!C/4 | .!5!B,)[K:bass][E,B,]- [E,B,](E/4=D/4^C/4B,/4 | %18
 .A,)[D,A,]- [D,A,](D/4=C/4B,/4A,/4 | .G,).[F,A,] .[E,G,]!tenuto!.[B,,,B,,] | %20
 [E,G,^C]/[I:staff -1][EG^c]/[I:staff +1] [F,A,^D]/[I:staff -1][FA^d]/[I:staff +1] [G,CE]/[I:staff -1][Gce]/[I:staff +1] [A,DF]/[I:staff -1][Adf]/ | %21
[I:staff +1] [B,EG]/[I:staff -1][Beg]/[I:staff +1] [G,^CE]/[I:staff -1][G^ce]/[I:staff +1] [F,B,^D]/[I:staff -1][FB^d]/[I:staff +1] ([^D,F,] | %22
 .E,)"_sopra" (!tenuto!^D.E) ([^C,E,] | .=D,)"_sopra" (!tenuto!^C.D)!sfz! .[B,,,B,,] | %24
 [E,G,^C]/[I:staff -1][EG^c]/[I:staff +1] [F,A,^D]/[I:staff -1][FA^d]/[I:staff +1] [G,CE]/[I:staff -1][Gce]/[I:staff +1] [A,DF]/[I:staff -1][Adf]/ | %25
[I:staff +1] [B,EG]/[I:staff -1][Beg]/[I:staff +1] [G,^CE]/[I:staff -1][G^ce]/[I:staff +1] [F,B,^D]/[I:staff -1][FB^d]/[I:staff +1] ([^D,F,] | %26
 .E,)"_sopra" (!tenuto!^D.E) ([^C,E,] | .=D,)"_sopra" (!tenuto!^C.D)!sfz! .[B,,,B,,] | %28
 [E,G,^C]/[I:staff -1][EG^c]/[I:staff +1] [F,A,^D]/[I:staff -1][FA^d]/[I:staff +1] [G,CE]/[I:staff -1][Gce]/!sfz![I:staff +1] .[B,,,B,,] | %29
 [F,A,^D]/[I:staff -1][FA^d]/[I:staff +1] [G,^CE]/[I:staff -1][G^ce]/[I:staff +1] [A,DF]/[I:staff -1][Adf]/!sfz![I:staff +1] .[B,,,B,,] | %30
 [G,^CE]/[I:staff -1][G^ce]/[I:staff +1] [A,^DF]/[I:staff -1][A^df]/[I:staff +1] [B,EG]/[I:staff -1][Beg]/"_ten."[I:staff +1] z/ [EG]/ | %31
 [EA]/[EA]/"_ten." z/ [EA]/ !tenuto!.[^DF][K:treble]!ped! (=D/8F/8A/8c/8[I:staff -1]=d/8f/8a/8c'/8)!ped-up! | %32
[I:staff +1] (^D/8F/8A/8B/8[I:staff -1]^d/8f/8a/8b/8)[I:staff +1] (=D/8F/8A/8c/8[I:staff -1]=d/8f/8a/8c'/8)[I:staff +1] (^D/8F/8A/8B/8[I:staff -1]^d/8f/8a/8b/8)[I:staff +1] (=F/8A/8c/8e/8[I:staff -1]=f/8a/8c'/8e'/8) | %33
[I:staff +1] (^F/8A/8B/8^d/8[I:staff -1]^f/8a/8b/8^d'/8)[I:staff +1] (=F/8A/8c/8e/8[I:staff -1]=f/8a/8c'/8e'/8)[I:staff +1] (^F/8A/8B/8^d/8[I:staff -1]^f/8a/8b/8^d'/8)!8va(![I:staff +1] (a/8c'/8^d'/8g'/8[I:staff -1]a/8c'/8^d'/8g'/8)!8va)! | %34
[I:staff +1] (3(B/4^d/4f/4[I:staff -1](3B/4^d/4f/4)[I:staff +1] (A/8c/8d/8g/8[I:staff -1]A/8c/8d/8g/8)[I:staff +1] (3(B/4d/4f/4[I:staff -1](3B/4d/4f/4)[I:staff +1] (=d/8f/8a/8c'/8[I:staff -1]=d/8f/8a/8c'/8) | %35
[I:staff +1] (^d/8f/8a/8b/8"^decresc."[I:staff -1]^d/8f/8a/8b/8)[I:staff +1] (=d/8f/8a/8c'/8[I:staff -1]=d/8f/8a/8c'/8)[I:staff +1] (^d/8f/8a/8b/8[I:staff -1]^d/8f/8a/8b/8)[I:staff +1][K:bass] (B,/4A,/4G,/4F,/4 | %36
!ped! !arpeggio!.[E,,E,])"^delicatissimo"!arpeggio!.[G,B,E]!ped-up! .E,!arpeggio!.[A,CF] | %37
 .E,!arpeggio!.[^A,^CG] .E,!arpeggio!.[B,D^G] | .E,!arpeggio!.[^CE^A] .E,[K:treble].[^D^F=c] | %39
 !arpeggio!.[EGB]!arpeggio!.[EFA] .[EGB] (!1!E/4!2!D/4!3!C/4!4!B,/4 | %40
 .!5!^A,)!arpeggio!.[EGc] .=A,!arpeggio!.[^DFc] | .G,!arpeggio!.[EGB] !arpeggio!.[F,F].[F^A] | %42
 .F,.[^GB] .F.[^A^c] | !arpeggio!.[B,FB].[=CF^A] !arpeggio!.[B,FB] (B/4=A/4G/4F/4 | %44
 .E).[GB] .E.[Ac] | .E.[^A^c] .E.[Bd] | .E.[^ce] .E.[^df] | %47
 .[eg]!arpeggio!.[efa] .[eg]"^sempre" (!1!g/4!2!f/4!3!e/4!4!d/4 | %48
 .!5!^c) [Fc]-[Fc] (!1!f/4!2!e/4!3!^d/4!4!c/4 | .!5!B) [EB]-[EB] (e/4=d/4^c/4B/4 | %50
 .A) [DA]2 !1!d/4!2!c/4!3!B/4!4!A/4 | .[GB].[FB] .[EGB][K:bass] !arpeggio!.[E,G,B,E] |] %52
V:3
 x4 | x4 | x4 | x4 | x4 | x4 | x4 |[K:treble] x3[K:bass] x | x4 | x4 | x4 | x4 | x4 | x4 | x4 | %15
[K:treble] x4 | x4 | x[K:bass] x3 | x4 | x4 | x4 | x4 | x4 | x4 | x4 | x4 | x4 | x4 | x4 | x4 | %30
 x3 !tenuto!B,- | B, !>!B,-B,[K:treble] x | x4 | x3!8va(! x!8va)! | x4 | x3[K:bass] x | x4 | x4 | %38
 x3[K:treble] x | x4 | x4 | x4 | x4 | x4 | x4 | x4 | x4 | x4 | x4 | x4 | x4 | x3[K:bass] x |] %52

